assets/icons/mail_colored.svg

<svg fill="none" height="24" viewBox="0 0 24 24" width="24" xmlns="http://www.w3.org/2000/svg"><g fill="#000"><path d="m24 5.62508v12.75002c-.0205.057-.0361.1157-.0469.1753-.2343 2.4408-2.3615 4.4151-4.8309 4.4241-4.74.0178-9.48017.0178-14.22048 0-2.15625-.0057-4.078126-1.486-4.673908-3.5569-.097968-.3394-.152812-.6947-.227812-1.0425v-12.75002c.0204695-.05704.0361487-.11568.046875-.17531.231562-2.44407 2.380315-4.42032 4.853905-4.42594 4.72469-.01094 9.44942-.01094 14.17402 0 2.1741.00422 4.1072 1.48406 4.7054 3.58031.0956.33234.1476.67875.2198 1.02094zm-22.02047 1.85344v.39656 9.77112c0 .2029.00844.4059.02297.6093.11156 1.5272 1.41047 2.7521 2.93953 2.7535 4.70906.0037 9.41847.0037 14.12817 0 .2104-.0008.4201-.0269.6243-.0778 1.4189-.3525 2.3194-1.5239 2.3218-3.038.0059-3.375.0059-6.7492 0-10.12265 0-.07453-.0085-.1486-.0132-.22313l-.1026-.08015c-.0441.08296-.0708.18234-.1341.24609-2.092 2.09391-4.1719 4.19904-6.2873 6.27004-1.2657 1.2393-2.8055 1.6584-4.5469 1.3125-1.12267-.2241-2.00064-.8541-2.79189-1.6533-1.96875-1.9875-3.95062-3.95768-5.92781-5.93487-.05625-.06703-.11766-.12093-.23297-.22921zm10.02467-4.48829c-2.35826 0-4.71701-.01968-7.07482.00844-1.215.01406-2.08782.63563-2.64704 1.70813-.0689.13218-.05625.21515.0511.32203 2.50968 2.50375 5.01812 5.00877 7.52531 7.51497.65955.6563 1.46675.9507 2.40285.8747.7575-.0614 1.3907-.382 1.9218-.9131 2.4819-2.4778 4.9627-4.95548 7.4424-7.43298.1406-.14062.1617-.25078.0675-.42187-.5864-1.05563-1.4667-1.64907-2.6846-1.65703-2.3348-.0136-4.6696-.00329-7.0045-.00329z"/><path d="m8.11875 13.6359c.79125.7997 1.66922 1.4297 2.79185 1.6538 1.74.3473 3.2813-.0713 4.5469-1.3125 2.1145-2.071 4.1953-4.1761 6.2873-6.27001.0201-.02128.0373-.04506.0511-.07077v-2.22658c.0002-.14454-.0513-.28438-.1453-.39422-.0156.01924-.0324.03754-.0501.05485-2.4841 2.47406-4.9647 4.95173-7.4419 7.43293-.5316.5311-1.1644.8518-1.9219.9132-.9375.0759-1.7437-.2185-2.40279-.8747-2.51313-2.5-5.02157-5.00502-7.52532-7.51503-.00328-.00328-.00562-.00656-.0089-.00937-.09283.10963-.14367.24869-.14344.39234v2.25469l.03609.03516c1.97579 1.97859 3.95954 3.94921 5.92641 5.93621z"/></g></svg>

<svg width="24" height="24" viewBox="0 0 24 24" fill="none" xmlns="http://www.w3.org/2000/svg">
<path d="M24 5.62508V18.3751C23.9795 18.4321 23.9639 18.4908 23.9531 18.5504C23.7188 20.9912 21.5916 22.9655 19.1222 22.9745C14.3822 22.9923 9.64203 22.9923 4.90172 22.9745C2.74547 22.9688 0.823594 21.4885 0.227812 19.4176C0.129844 19.0782 0.075 18.7229 0 18.3751V5.62508C0.0204695 5.56804 0.0361487 5.5094 0.046875 5.44977C0.278437 3.0057 2.42719 1.02945 4.90078 1.02383C9.62547 1.01289 14.3502 1.01289 19.0748 1.02383C21.2489 1.02805 23.182 2.50789 23.7802 4.60414C23.8758 4.93648 23.9278 5.28289 24 5.62508ZM1.97953 7.47852V7.87508C1.97953 11.1326 1.97953 14.3896 1.97953 17.6462C1.97953 17.8491 1.98797 18.0521 2.0025 18.2555C2.11406 19.7827 3.41297 21.0076 4.94203 21.009C9.65109 21.0127 14.3605 21.0127 19.0702 21.009C19.2806 21.0082 19.4903 20.9821 19.6945 20.9312C21.1134 20.5787 22.0139 19.4073 22.0163 17.8932C22.0222 14.5182 22.0222 11.144 22.0163 7.77055C22.0163 7.69602 22.0078 7.62195 22.0031 7.54742L21.9005 7.46727C21.8564 7.55023 21.8297 7.64961 21.7664 7.71336C19.6744 9.80727 17.5945 11.9124 15.4791 13.9834C14.2134 15.2227 12.6736 15.6418 10.9322 15.2959C9.80953 15.0718 8.93156 14.4418 8.14031 13.6426C6.17156 11.6551 4.18969 9.68492 2.2125 7.70773C2.15625 7.6407 2.09484 7.5868 1.97953 7.47852ZM12.0042 2.99023C9.64594 2.99023 7.28719 2.97055 4.92938 2.99867C3.71438 3.01273 2.84156 3.6343 2.28234 4.7068C2.21344 4.83898 2.22609 4.92195 2.33344 5.02883C4.84312 7.53258 7.35156 10.0376 9.85875 12.5438C10.5183 13.2001 11.3255 13.4945 12.2616 13.4185C13.0191 13.3571 13.6523 13.0365 14.1834 12.5054C16.6653 10.0276 19.1461 7.54992 21.6258 5.07242C21.7664 4.9318 21.7875 4.82164 21.6933 4.65055C21.1069 3.59492 20.2266 3.00148 19.0087 2.99352C16.6739 2.97992 14.3391 2.99023 12.0042 2.99023Z" fill="black"/>
<path d="M8.11875 13.6359C8.91 14.4356 9.78797 15.0656 10.9106 15.2897C12.6506 15.637 14.1919 15.2184 15.4575 13.9772C17.572 11.9062 19.6528 9.8011 21.7448 7.70719C21.7649 7.68591 21.7821 7.66213 21.7959 7.63642V5.40984C21.7961 5.2653 21.7446 5.12546 21.6506 5.01562C21.635 5.03486 21.6182 5.05316 21.6005 5.07047C19.1164 7.54453 16.6358 10.0222 14.1586 12.5034C13.627 13.0345 12.9942 13.3552 12.2367 13.4166C11.2992 13.4925 10.493 13.1981 9.83391 12.5419C7.32078 10.0419 4.81234 7.53688 2.30859 5.02687C2.30531 5.02359 2.30297 5.02031 2.29969 5.0175C2.20686 5.12713 2.15602 5.26619 2.15625 5.40984V7.66453L2.19234 7.69969C4.16813 9.67828 6.15188 11.6489 8.11875 13.6359Z" fill="black"/>
</svg>
